; generated by PrusaSlicer 2.5.0+win64 on 2023-01-08 at 15:11:17 UTC

; Ultimaker 2, 0.4 mm Nozzle

; external perimeters extrusion width = 0.40mm
; perimeters extrusion width = 0.40mm
; infill extrusion width = 0.40mm
; solid infill extrusion width = 0.40mm
; top infill extrusion width = 0.39mm
; first layer extrusion width = 0.40mm

M73 P0 R48
M107 ; disable fan
;TYPE:Custom
M355 S1 P20;turn on case light

M190 S60
G21 ;metric values
G90 ;absolute positioning
M82 ;set extruder to absolute mode
M107 ;start with the fan off
M200 D0 T0 ;reset filament diameter
G28 ;home all
T0 ;switch to the first nozzle used for print
M104 T0 S195
G0 X25 Y20 F7200 ;change Y20 to Y0 ansonl
G0 Z20 F2400
M109 T0 S220
G0 X210 Y0 F7200
G92 E-12.0 ; increase purge 6.5 to 12
G1 E0 F200 ;purge nozzle ;change F45 to F200 like ultimaker code ansonl
G1 E-6.5 F1500
G1 E0 F1500
G1 Y50 F9000 ;add quick movement to Y50 like ultimaker code ansonl
M400 ;finish all moves
T0
;end of startup sequence

M355 S1 P20;turn on case light
M204 S10000
G21 ; set units to millimeters
G90 ; use absolute coordinates
M82 ; use absolute distances for extrusion
G92 E0 ; reset extrusion distance
; Filament gcode
M107 ; disable fan
;LAYER_CHANGE
;Z:0.3
;HEIGHT:0.3
;BEFORE_LAYER_CHANGE
;layer:0;
M117 Layer 0;

M73 P0 R47
G1 Z.3 F12000 ; move to next layer (0)
;M593 F0 ; Hz Input Shaping Test
G1 E-6 F3000 ; retract
G92 E0 ; reset extrusion distance
G1 X46.641 Y39.727 F12000 ; move to first skirt point
G1 E6 F3000 ;  ; unretract
M204 P1000 ; adjust acceleration
;TYPE:Skirt/Brim
;WIDTH:0.4
G1 F600
G1 X47.227 Y39.141 E6.03468 ; skirt
G1 X48.618 Y38.308 E6.10254 ; skirt
G1 X49.586 Y38.164 E6.14351 ; skirt
G1 X170.414 Y38.164 E11.20142 ; skirt
G1 X171.987 Y38.558 E11.26929 ; skirt
G1 X172.773 Y39.141 E11.31025 ; skirt
G1 X173.359 Y39.727 E11.34493 ; skirt
G1 X174.192 Y41.118 E11.4128 ; skirt
G1 X174.336 Y42.086 E11.45376 ; skirt
G1 X174.336 Y50.914 E11.82332 ; skirt
G1 X173.942 Y52.487 E11.89119 ; skirt
G1 X173.359 Y53.273 E11.93215 ; skirt
G1 X60.773 Y165.859 E18.59717 ; skirt
G1 X59.382 Y166.692 E18.66503 ; skirt
G1 X58.414 Y166.836 E18.706 ; skirt
G1 X49.586 Y166.836 E19.07556 ; skirt
G1 X48.013 Y166.442 E19.14342 ; skirt
M73 P1 R47
G1 X47.227 Y165.859 E19.18439 ; skirt
G1 X46.641 Y165.273 E19.21907 ; skirt
G1 X45.808 Y163.882 E19.28693 ; skirt
G1 X45.664 Y162.914 E19.3279 ; skirt
G1 X45.664 Y42.086 E24.38581 ; skirt
G1 X46.058 Y40.513 E24.45368 ; skirt
G1 X46.606 Y39.775 E24.49213 ; skirt
M204 P3000 ; adjust acceleration
G1 X49.522 Y42.266 F12000 ; move to first brim point
M204 P1000 ; adjust acceleration
G1 F600
G1 X49.766 Y42.022 E24.50656 ; brim
G1 X49.828 Y41.997 E24.50936 ; brim
G1 X122.722 Y41.997 E27.56074 ; brim
G1 X122.973 Y42.127 E27.5726 ; brim
G1 X126.383 Y46.997 E27.82143 ; brim
G1 X133.359 Y46.997 E28.11344 ; brim
G1 X136.768 Y42.127 E28.36226 ; brim
M73 P2 R47
G1 X137.019 Y41.997 E28.37412 ; brim
G1 X170.172 Y41.997 E29.76192 ; brim
M73 P2 R46
G1 X170.234 Y42.022 E29.76471 ; brim
G1 X170.478 Y42.266 E29.77915 ; brim
G1 X170.503 Y42.328 E29.78194 ; brim
G1 X170.503 Y50.672 E30.13126 ; brim
G1 X170.478 Y50.734 E30.13405 ; brim
G1 X170.234 Y50.978 E30.14848 ; brim
G1 X170.172 Y51.003 E30.15128 ; brim
G1 X117.929 Y51.003 E32.33819 ; brim
G1 X117.703 Y50.915 E32.34837 ; brim
G1 X116.291 Y49.503 E32.43192 ; brim
G1 X111.709 Y49.503 E32.62377 ; brim
G1 X110.297 Y50.915 E32.70732 ; brim
G1 X110.071 Y51.003 E32.7175 ; brim
G1 X58.503 Y51.003 E34.87612 ; brim
G1 X58.503 Y84.919 E36.29583 ; brim
G1 X58.42 Y85.143 E36.30585 ; brim
G1 X57.003 Y86.774 E36.39626 ; brim
G1 X57.003 Y92.154 E36.6215 ; brim
G1 X58.42 Y93.785 E36.71191 ; brim
G1 X58.503 Y94.009 E36.72193 ; brim
G1 X58.503 Y118.991 E37.76766 ; brim
G1 X58.42 Y119.215 E37.77767 ; brim
G1 X57.003 Y120.846 E37.86808 ; brim
G1 X57.003 Y126.226 E38.09333 ; brim
G1 X58.42 Y127.857 E38.18374 ; brim
M73 P3 R46
G1 X58.503 Y128.081 E38.19375 ; brim
G1 X58.503 Y162.672 E39.64176 ; brim
G1 X58.478 Y162.734 E39.64455 ; brim
G1 X58.234 Y162.978 E39.65898 ; brim
G1 X58.172 Y163.003 E39.66178 ; brim
G1 X49.828 Y163.003 E40.01109 ; brim
G1 X49.766 Y162.978 E40.01389 ; brim
G1 X49.522 Y162.734 E40.02832 ; brim
G1 X49.497 Y162.672 E40.03112 ; brim
G1 X49.497 Y89.778 E43.0825 ; brim
G1 X49.627 Y89.527 E43.09436 ; brim
G1 X54.497 Y86.117 E43.34319 ; brim
G1 X54.497 Y79.141 E43.6352 ; brim
G1 X49.627 Y75.732 E43.88402 ; brim
G1 X49.497 Y75.481 E43.89588 ; brim
G1 X49.499 Y42.321 E45.28394 ; brim
M204 P3000 ; adjust acceleration
G1 X49.832 Y42.43 F12000 ; move to first brim point
M204 P1000 ; adjust acceleration
G1 F600
G1 X49.93 Y42.332 E45.28976 ; brim
G1 X122.661 Y42.332 E48.33427 ; brim
G1 X122.734 Y42.37 E48.33771 ; brim
G1 X126.208 Y47.332 E48.59128 ; brim
G1 X133.533 Y47.332 E48.89792 ; brim
G1 X137.008 Y42.37 E49.15149 ; brim
G1 X137.081 Y42.332 E49.15493 ; brim
G1 X170.07 Y42.332 E50.53585 ; brim
G1 X170.168 Y42.43 E50.54167 ; brim
G1 X170.168 Y50.57 E50.88237 ; brim
G1 X170.07 Y50.668 E50.88819 ; brim
G1 X117.967 Y50.668 E53.06923 ; brim
M73 P4 R46
G1 X117.905 Y50.642 E53.07203 ; brim
G1 X116.43 Y49.168 E53.15931 ; brim
G1 X111.57 Y49.168 E53.3628 ; brim
G1 X110.095 Y50.642 E53.45008 ; brim
M73 P4 R45
G1 X110.033 Y50.668 E53.45288 ; brim
G1 X58.168 Y50.668 E55.62399 ; brim
G1 X58.168 Y84.889 E57.05649 ; brim
G1 X58.147 Y84.946 E57.05903 ; brim
G1 X56.668 Y86.648 E57.15343 ; brim
G1 X56.668 Y92.28 E57.38917 ; brim
G1 X58.147 Y93.983 E57.48357 ; brim
G1 X58.168 Y94.039 E57.48611 ; brim
G1 X58.168 Y118.961 E58.52932 ; brim
G1 X58.147 Y119.017 E58.53186 ; brim
G1 X56.668 Y120.72 E58.62626 ; brim
G1 X56.668 Y126.352 E58.862 ; brim
G1 X58.147 Y128.054 E58.95641 ; brim
G1 X58.168 Y128.111 E58.95894 ; brim
G1 X58.168 Y162.57 E60.40138 ; brim
G1 X58.07 Y162.668 E60.4072 ; brim
G1 X49.93 Y162.668 E60.7479 ; brim
G1 X49.832 Y162.57 E60.75372 ; brim
G1 X49.832 Y89.839 E63.79823 ; brim
G1 X49.87 Y89.766 E63.80167 ; brim
G1 X54.832 Y86.292 E64.05524 ; brim
G1 X54.832 Y78.967 E64.36188 ; brim
G1 X49.87 Y75.492 E64.61545 ; brim
M73 P5 R45
G1 X49.832 Y75.419 E64.61889 ; brim
G1 X49.832 Y42.49 E65.9973 ; brim
M204 P3000 ; adjust acceleration
G1 E59.9973 F3000 ; retract
G92 E0 ; reset extrusion distance
G1 X54.832 Y126.4 F12000 ; move to first brim point
G1 E6 F3000 ;  ; unretract
M204 P1000 ; adjust acceleration
G1 F600
G1 X54.832 Y132.207 E6.24309 ; brim
G1 X50.685 Y129.303 E6.455 ; brim
G1 X54.783 Y126.434 E6.66439 ; brim
M204 P3000 ; adjust acceleration
G1 X54.497 Y127.044 F12000 ; move to first brim point
M204 P1000 ; adjust acceleration
G1 F600
G1 X54.497 Y131.562 E6.8535 ; brim
G1 X51.271 Y129.303 E7.01836 ; brim
G1 X54.447 Y127.079 E7.1807 ; brim
M204 P3000 ; adjust acceleration
G1 E1.1807 F3000 ; retract
G92 E0 ; reset extrusion distance
G1 X80.293 Y47.332 F12000 ; move to first brim point
G1 E6 F3000 ;  ; unretract
M204 P1000 ; adjust acceleration
G1 F600
G1 X83.197 Y43.185 E6.21191 ; brim
G1 X86.1 Y47.332 E6.42381 ; brim
G1 X80.353 Y47.332 E6.66439 ; brim
M204 P3000 ; adjust acceleration
G1 X80.938 Y46.997 F12000 ; move to first brim point
M204 P1000 ; adjust acceleration
G1 F600
G1 X83.197 Y43.771 E6.82924 ; brim
G1 X85.456 Y46.997 E6.9941 ; brim
G1 X80.998 Y46.997 E7.1807 ; brim
M204 P3000 ; adjust acceleration
G1 E1.1807 F3000 ; retract
G92 E0 ; reset extrusion distance
G1 X169.649 Y43.531 F12000 ; move to first infill point
G1 E6 F3000 ;  ; unretract
M204 P1000 ; adjust acceleration
;TYPE:Solid infill
;WIDTH:0.400556
G1 F600
G1 X169.12 Y43.002 E6.03135 ; infill
G1 X168.645 Y43.002 E6.05128 ; infill
G1 X169.498 Y43.855 E6.10186 ; infill
G1 X169.498 Y44.33 E6.1218 ; infill
G1 X168.17 Y43.002 E6.20057 ; infill
G1 X167.694 Y43.002 E6.2205 ; infill
G1 X169.498 Y44.806 E6.32747 ; infill
G1 X169.498 Y45.281 E6.3474 ; infill
G1 X167.219 Y43.002 E6.48256 ; infill
G1 X166.743 Y43.002 E6.50249 ; infill
G1 X169.498 Y45.757 E6.66584 ; infill
G1 X169.498 Y46.232 E6.68577 ; infill
G1 X166.268 Y43.002 E6.87731 ; infill
G1 X165.792 Y43.002 E6.89724 ; infill
G1 X169.498 Y46.708 E7.11697 ; infill
G1 X169.498 Y47.183 E7.13691 ; infill
G1 X165.317 Y43.002 E7.38483 ; infill
G1 X164.842 Y43.002 E7.40476 ; infill
G1 X169.498 Y47.658 E7.68087 ; infill
G1 X169.498 Y48.134 E7.70081 ; infill
G1 X164.366 Y43.002 E8.00511 ; infill
G1 X163.891 Y43.002 E8.02505 ; infill
G1 X169.498 Y48.609 E8.35754 ; infill
G1 X169.498 Y49.085 E8.37748 ; infill
G1 X163.415 Y43.002 E8.73816 ; infill
G1 X162.94 Y43.002 E8.7581 ; infill
G1 X169.498 Y49.56 E9.14697 ; infill
G1 X169.498 Y49.998 E9.16533 ; infill
G1 X169.46 Y49.998 E9.16691 ; infill
G1 X162.464 Y43.002 E9.58175 ; infill
G1 X161.989 Y43.002 E9.60168 ; infill
G1 X168.985 Y49.998 E10.01652 ; infill
G1 X168.51 Y49.998 E10.03646 ; infill
G1 X161.514 Y43.002 E10.45129 ; infill
G1 X161.038 Y43.002 E10.47123 ; infill
G1 X168.034 Y49.998 E10.88607 ; infill
G1 X167.559 Y49.998 E10.906 ; infill
G1 X160.563 Y43.002 E11.32084 ; infill
M73 P6 R45
G1 X160.087 Y43.002 E11.34078 ; infill
G1 X167.083 Y49.998 E11.75562 ; infill
G1 X166.608 Y49.998 E11.77555 ; infill
G1 X159.612 Y43.002 E12.19039 ; infill
G1 X159.136 Y43.002 E12.21032 ; infill
G1 X166.132 Y49.998 E12.62516 ; infill
G1 X165.657 Y49.998 E12.6451 ; infill
G1 X158.661 Y43.002 E13.05994 ; infill
G1 X158.186 Y43.002 E13.07987 ; infill
G1 X165.182 Y49.998 E13.49471 ; infill
G1 X164.706 Y49.998 E13.51464 ; infill
G1 X157.71 Y43.002 E13.92948 ; infill
G1 X157.235 Y43.002 E13.94942 ; infill
G1 X164.231 Y49.998 E14.36426 ; infill
G1 X163.755 Y49.998 E14.38419 ; infill
G1 X156.759 Y43.002 E14.79903 ; infill
G1 X156.284 Y43.002 E14.81896 ; infill
G1 X163.28 Y49.998 E15.2338 ; infill
G1 X162.804 Y49.998 E15.25374 ; infill
G1 X155.809 Y43.002 E15.66858 ; infill
M73 P6 R44
G1 X155.333 Y43.002 E15.68851 ; infill
G1 X162.329 Y49.998 E16.10335 ; infill
G1 X161.854 Y49.998 E16.12328 ; infill
G1 X154.858 Y43.002 E16.53812 ; infill
G1 X154.382 Y43.002 E16.55806 ; infill
G1 X161.378 Y49.998 E16.9729 ; infill
G1 X160.903 Y49.998 E16.99283 ; infill
G1 X153.907 Y43.002 E17.40767 ; infill
G1 X153.431 Y43.002 E17.4276 ; infill
G1 X160.427 Y49.998 E17.84244 ; infill
G1 X159.952 Y49.998 E17.86238 ; infill
G1 X152.956 Y43.002 E18.27722 ; infill
G1 X152.481 Y43.002 E18.29715 ; infill
G1 X159.476 Y49.998 E18.71199 ; infill
G1 X159.001 Y49.998 E18.73192 ; infill
G1 X152.005 Y43.002 E19.14676 ; infill
G1 X151.53 Y43.002 E19.1667 ; infill
G1 X158.526 Y49.998 E19.58154 ; infill
G1 X158.05 Y49.998 E19.60147 ; infill
G1 X151.054 Y43.002 E20.01631 ; infill
G1 X150.579 Y43.002 E20.03624 ; infill
G1 X157.575 Y49.998 E20.45108 ; infill
G1 X157.099 Y49.998 E20.47102 ; infill
G1 X150.103 Y43.002 E20.88586 ; infill
G1 X149.628 Y43.002 E20.90579 ; infill
G1 X156.624 Y49.998 E21.32063 ; infill
G1 X156.148 Y49.998 E21.34056 ; infill
G1 X149.153 Y43.002 E21.7554 ; infill
G1 X148.677 Y43.002 E21.77534 ; infill
G1 X155.673 Y49.998 E22.19018 ; infill
G1 X155.198 Y49.998 E22.21011 ; infill
G1 X148.202 Y43.002 E22.62495 ; infill
G1 X147.726 Y43.002 E22.64488 ; infill
G1 X154.722 Y49.998 E23.05972 ; infill
G1 X154.247 Y49.998 E23.07966 ; infill
G1 X147.251 Y43.002 E23.4945 ; infill
M73 P7 R44
G1 X146.775 Y43.002 E23.51443 ; infill
G1 X153.771 Y49.998 E23.92927 ; infill
G1 X153.296 Y49.998 E23.94921 ; infill
G1 X146.3 Y43.002 E24.36404 ; infill
G1 X145.825 Y43.002 E24.38398 ; infill
G1 X152.821 Y49.998 E24.79882 ; infill
G1 X152.345 Y49.998 E24.81875 ; infill
G1 X145.349 Y43.002 E25.23359 ; infill
G1 X144.874 Y43.002 E25.25353 ; infill
G1 X151.87 Y49.998 E25.66836 ; infill
G1 X151.394 Y49.998 E25.6883 ; infill
G1 X144.398 Y43.002 E26.10314 ; infill
G1 X143.923 Y43.002 E26.12307 ; infill
G1 X150.919 Y49.998 E26.53791 ; infill
G1 X150.443 Y49.998 E26.55785 ; infill
G1 X143.448 Y43.002 E26.97269 ; infill
G1 X142.972 Y43.002 E26.99262 ; infill
G1 X149.968 Y49.998 E27.40746 ; infill
G1 X149.493 Y49.998 E27.42739 ; infill
G1 X142.497 Y43.002 E27.84223 ; infill
G1 X142.021 Y43.002 E27.86217 ; infill
G1 X149.017 Y49.998 E28.27701 ; infill
G1 X148.542 Y49.998 E28.29694 ; infill
G1 X141.546 Y43.002 E28.71178 ; infill
G1 X141.07 Y43.002 E28.73171 ; infill
G1 X148.066 Y49.998 E29.14655 ; infill
G1 X147.591 Y49.998 E29.16649 ; infill
G1 X140.595 Y43.002 E29.58133 ; infill
G1 X140.12 Y43.002 E29.60126 ; infill
G1 X147.115 Y49.998 E30.0161 ; infill
G1 X146.64 Y49.998 E30.03603 ; infill
G1 X139.644 Y43.002 E30.45087 ; infill
G1 X139.169 Y43.002 E30.47081 ; infill
G1 X146.165 Y49.998 E30.88565 ; infill
G1 X145.689 Y49.998 E30.90558 ; infill
G1 X138.693 Y43.002 E31.32042 ; infill
G1 X138.218 Y43.002 E31.34035 ; infill
G1 X145.214 Y49.998 E31.75519 ; infill
G1 X144.738 Y49.998 E31.77513 ; infill
G1 X137.742 Y43.002 E32.18997 ; infill
G1 X137.383 Y43.002 E32.20503 ; infill
G1 X137.335 Y43.07 E32.20853 ; infill
G1 X144.263 Y49.998 E32.61932 ; infill
G1 X143.787 Y49.998 E32.63925 ; infill
G1 X137.14 Y43.35 E33.03346 ; infill
G1 X136.944 Y43.63 E33.04777 ; infill
G1 X143.312 Y49.998 E33.4254 ; infill
G1 X142.837 Y49.998 E33.44533 ; infill
G1 X136.748 Y43.909 E33.80638 ; infill
G1 X136.552 Y44.189 E33.82069 ; infill
G1 X142.361 Y49.998 E34.16516 ; infill
G1 X141.886 Y49.998 E34.18509 ; infill
G1 X136.356 Y44.468 E34.51298 ; infill
G1 X136.161 Y44.748 E34.52729 ; infill
G1 X141.41 Y49.998 E34.83859 ; infill
G1 X140.935 Y49.998 E34.85853 ; infill
G1 X135.965 Y45.028 E35.15325 ; infill
M73 P8 R44
G1 X135.769 Y45.307 E35.16756 ; infill
G1 X140.46 Y49.998 E35.4457 ; infill
G1 X139.984 Y49.998 E35.46563 ; infill
G1 X135.573 Y45.587 E35.72719 ; infill
G1 X135.377 Y45.867 E35.74151 ; infill
G1 X139.509 Y49.998 E35.98648 ; infill
G1 X139.033 Y49.998 E36.00642 ; infill
G1 X135.182 Y46.146 E36.23481 ; infill
G1 X134.986 Y46.426 E36.24913 ; infill
G1 X138.558 Y49.998 E36.46094 ; infill
G1 X138.082 Y49.998 E36.48088 ; infill
G1 X134.79 Y46.705 E36.67611 ; infill
G1 X134.594 Y46.985 E36.69043 ; infill
G1 X137.607 Y49.998 E36.86908 ; infill
G1 X137.132 Y49.998 E36.88901 ; infill
G1 X134.398 Y47.265 E37.05109 ; infill
G1 X134.203 Y47.544 E37.0654 ; infill
G1 X136.656 Y49.998 E37.21089 ; infill
G1 X136.181 Y49.998 E37.23082 ; infill
G1 X134.005 Y47.822 E37.35985 ; infill
G1 X133.867 Y47.947 E37.36765 ; infill
G1 X133.698 Y47.991 E37.37496 ; infill
G1 X135.705 Y49.998 E37.49398 ; infill
G1 X135.23 Y49.998 E37.51391 ; infill
G1 X133.234 Y48.002 E37.63227 ; infill
G1 X132.759 Y48.002 E37.6522 ; infill
G1 X134.754 Y49.998 E37.77055 ; infill
G1 X134.279 Y49.998 E37.79049 ; infill
G1 X132.283 Y48.002 E37.90884 ; infill
G1 X131.808 Y48.002 E37.92877 ; infill
G1 X133.804 Y49.998 E38.04713 ; infill
G1 X133.328 Y49.998 E38.06706 ; infill
G1 X131.332 Y48.002 E38.18541 ; infill
G1 X130.857 Y48.002 E38.20535 ; infill
G1 X132.853 Y49.998 E38.3237 ; infill
G1 X132.377 Y49.998 E38.34363 ; infill
G1 X130.381 Y48.002 E38.46198 ; infill
G1 X129.906 Y48.002 E38.48192 ; infill
G1 X131.902 Y49.998 E38.60027 ; infill
G1 X131.426 Y49.998 E38.62021 ; infill
G1 X129.431 Y48.002 E38.73856 ; infill
G1 X128.955 Y48.002 E38.75849 ; infill
G1 X130.951 Y49.998 E38.87684 ; infill
G1 X130.476 Y49.998 E38.89678 ; infill
G1 X128.48 Y48.002 E39.01513 ; infill
G1 X128.004 Y48.002 E39.03506 ; infill
G1 X130 Y49.998 E39.15342 ; infill
G1 X129.525 Y49.998 E39.17335 ; infill
G1 X127.529 Y48.002 E39.2917 ; infill
G1 X127.053 Y48.002 E39.31164 ; infill
G1 X129.049 Y49.998 E39.42999 ; infill
G1 X128.574 Y49.998 E39.44992 ; infill
G1 X126.427 Y47.851 E39.57723 ; infill
M204 P3000 ; adjust acceleration
G1 X123.685 Y44.634 F12000 ; move to first infill point
M204 P1000 ; adjust acceleration
G1 F600
G1 X122.053 Y43.002 E39.674 ; infill
G1 X121.578 Y43.002 E39.69394 ; infill
G1 X124.796 Y46.22 E39.88475 ; infill
M204 P3000 ; adjust acceleration
G1 E33.88475 F3000 ; retract
G92 E0 ; reset extrusion distance
G1 X120.952 Y42.851 F12000 ; move to first infill point
M73 P8 R43
G1 E6 F3000 ;  ; unretract
M204 P1000 ; adjust acceleration
G1 F600
G1 X128.099 Y49.998 E6.42379 ; infill
G1 X127.623 Y49.998 E6.44373 ; infill
G1 X120.627 Y43.002 E6.85857 ; infill
G1 X120.152 Y43.002 E6.8785 ; infill
