; generated by PrusaSlicer 2.5.0+win64 on 2023-03-16 at 00:26:05 UTC

; Ultimaker 2, 0.4 mm Nozzle

; external perimeters extrusion width = 0.40mm
; perimeters extrusion width = 0.40mm
; infill extrusion width = 0.40mm
; solid infill extrusion width = 0.40mm
; top infill extrusion width = 0.39mm
; first layer extrusion width = 0.40mm

M73 P0 R39
M107 ; disable fan
;TYPE:Custom
M355 S1 P20;turn on case light

M190 S60
G21 ;metric values
G90 ;absolute positioning
M82 ;set extruder to absolute mode
M107 ;start with the fan off
M200 D0 T0 ;reset filament diameter
G28 ;home all
T0 ;switch to the first nozzle used for print
M104 T0 S185
G0 X25 Y20 F7200 ;change Y20 to Y0 ansonl
G0 Z20 F2400
M109 T0 S210
G0 X210 Y0 F7200
G92 E-12.0 ; increase purge 6.5 to 12
G1 E0 F200 ;purge nozzle ;change F45 to F200 like ultimaker code ansonl
G1 E-6.5 F1500
G1 E0 F1500
G1 Y50 F9000 ;add quick movement to Y50 like ultimaker code ansonl
M400 ;finish all moves
T0
;end of startup sequence

M355 S1 P20;turn on case light
M204 S10000
G21 ; set units to millimeters
G90 ; use absolute coordinates
M82 ; use absolute distances for extrusion
G92 E0 ; reset extrusion distance
; Filament gcode
M107 ; disable fan
;LAYER_CHANGE
;Z:0.2
;HEIGHT:0.2
;BEFORE_LAYER_CHANGE
;layer:0;
M117 Layer 0;

G1 Z.2 F12000 ; move to next layer (0)
;M593 F0 ; Hz Input Shaping Test
G1 E-6 F3000 ; retract
G92 E0 ; reset extrusion distance
G1 X47.226 Y39.961 F12000 ; move to first skirt point
G1 E6 F3000 ;  ; unretract
M204 P3000 ; adjust acceleration
;TYPE:Skirt/Brim
;WIDTH:0.4
G1 F1500
G1 X47.461 Y39.726 E6.00371 ; skirt
G1 X48.855 Y38.889 E6.02192 ; skirt
G1 X49.834 Y38.743 E6.033 ; skirt
G1 X170.166 Y38.743 E7.38009 ; skirt
G1 X171.744 Y39.137 E7.39829 ; skirt
G1 X172.774 Y39.961 E7.41306 ; skirt
G1 X173.611 Y41.355 E7.43127 ; skirt
G1 X173.757 Y42.334 E7.44235 ; skirt
M73 P0 R38
G1 X173.757 Y50.666 E7.53562 ; skirt
G1 X173.363 Y52.244 E7.55383 ; skirt
G1 X172.774 Y53.039 E7.56491 ; skirt
G1 X60.539 Y165.274 E9.34178 ; skirt
G1 X59.145 Y166.111 E9.35999 ; skirt
G1 X58.166 Y166.257 E9.37108 ; skirt
G1 X49.834 Y166.257 E9.46435 ; skirt
G1 X48.256 Y165.863 E9.48255 ; skirt
G1 X47.461 Y165.274 E9.49364 ; skirt
G1 X47.226 Y165.039 E9.49735 ; skirt
G1 X46.389 Y163.645 E9.51556 ; skirt
G1 X46.243 Y162.666 E9.52664 ; skirt
M73 P1 R38
G1 X46.243 Y42.334 E10.87372 ; skirt
G1 X46.637 Y40.756 E10.89193 ; skirt
G1 X47.204 Y39.991 E10.9026 ; skirt
G1 X49.821 Y42.426 F12000 ; move to first brim point
G1 F1500
G1 X49.926 Y42.321 E10.90425 ; brim
G1 X122.623 Y42.321 E11.71808 ; brim
G1 X122.7 Y42.362 E11.71906 ; brim
G1 X126.173 Y47.321 E11.78684 ; brim
G1 X133.487 Y47.321 E11.86872 ; brim
G1 X136.96 Y42.362 E11.9365 ; brim
G1 X137.037 Y42.321 E11.93747 ; brim
G1 X170.074 Y42.321 E12.30731 ; brim
G1 X170.179 Y42.426 E12.30897 ; brim
G1 X170.179 Y50.574 E12.40018 ; brim
G1 X170.074 Y50.679 E12.40183 ; brim
G1 X117.964 Y50.679 E12.98519 ; brim
G1 X117.899 Y50.651 E12.98598 ; brim
G1 X116.426 Y49.179 E13.0093 ; brim
G1 X111.574 Y49.179 E13.06362 ; brim
G1 X110.101 Y50.651 E13.08694 ; brim
G1 X110.036 Y50.679 E13.08773 ; brim
G1 X58.179 Y50.679 E13.66826 ; brim
G1 X58.179 Y84.862 E14.05094 ; brim
G1 X58.156 Y84.923 E14.05166 ; brim
G1 X56.679 Y86.624 E14.07688 ; brim
G1 X56.679 Y92.247 E14.13984 ; brim
G1 X58.156 Y93.948 E14.16506 ; brim
G1 X58.179 Y94.009 E14.16578 ; brim
G1 X58.179 Y118.991 E14.44545 ; brim
G1 X58.156 Y119.052 E14.44618 ; brim
G1 X56.679 Y120.753 E14.4714 ; brim
G1 X56.679 Y126.376 E14.53435 ; brim
G1 X58.156 Y128.077 E14.55958 ; brim
G1 X58.179 Y128.138 E14.5603 ; brim
G1 X58.179 Y162.574 E14.9458 ; brim
G1 X58.074 Y162.679 E14.94746 ; brim
G1 X49.926 Y162.679 E15.03867 ; brim
G1 X49.821 Y162.574 E15.04033 ; brim
G1 X49.821 Y89.877 E15.85415 ; brim
G1 X49.862 Y89.8 E15.85513 ; brim
G1 X54.821 Y86.327 E15.92291 ; brim
G1 X54.821 Y79.013 E16.00479 ; brim
G1 X49.862 Y75.54 E16.07257 ; brim
G1 X49.821 Y75.463 E16.07355 ; brim
G1 X49.821 Y42.464 E16.44297 ; brim
G1 E10.44297 F3000 ; retract
G92 E0 ; reset extrusion distance
G1 X54.821 Y126.461 F12000 ; move to first brim point
M73 P2 R38
G1 E6 F3000 ;  ; unretract
G1 F1500
G1 X54.821 Y132.227 E6.06455 ; brim
G1 X50.704 Y129.344 E6.12082 ; brim
G1 X54.791 Y126.482 E6.17666 ; brim
G1 E.17666 F3000 ; retract
G92 E0 ; reset extrusion distance
G1 X80.273 Y47.321 F12000 ; move to first brim point
G1 E6 F3000 ;  ; unretract
G1 F1500
G1 X83.156 Y43.204 E6.05627 ; brim
G1 X86.039 Y47.321 E6.11254 ; brim
G1 X80.311 Y47.321 E6.17666 ; brim
G1 E.17666 F3000 ; retract
G92 E0 ; reset extrusion distance
G1 X169.639 Y43.583 F12000 ; move to first infill point
G1 E6 F3000 ;  ; unretract
M204 P10000 ; adjust acceleration
;TYPE:Solid infill
;WIDTH:0.400411
G1 F1500
G1 X169.077 Y43.021 E6.00891 ; infill
G1 X168.572 Y43.021 E6.01457 ; infill
G1 X169.479 Y43.928 E6.02895 ; infill
G1 X169.479 Y44.434 E6.03462 ; infill
G1 X168.066 Y43.021 E6.057 ; infill
G1 X167.561 Y43.021 E6.06267 ; infill
G1 X169.479 Y44.939 E6.09307 ; infill
G1 X169.479 Y45.445 E6.09874 ; infill
G1 X167.055 Y43.021 E6.13715 ; infill
G1 X166.549 Y43.021 E6.14282 ; infill
G1 X169.479 Y45.951 E6.18925 ; infill
G1 X169.479 Y46.456 E6.19491 ; infill
G1 X166.044 Y43.021 E6.24935 ; infill
G1 X165.538 Y43.021 E6.25502 ; infill
G1 X169.479 Y46.962 E6.31747 ; infill
G1 X169.479 Y47.467 E6.32314 ; infill
G1 X165.033 Y43.021 E6.39361 ; infill
G1 X164.527 Y43.021 E6.39927 ; infill
G1 X169.479 Y47.973 E6.47775 ; infill
G1 X169.479 Y48.478 E6.48342 ; infill
G1 X164.022 Y43.021 E6.56991 ; infill
G1 X163.516 Y43.021 E6.57558 ; infill
G1 X169.479 Y48.984 E6.67009 ; infill
G1 X169.479 Y49.49 E6.67575 ; infill
G1 X163.01 Y43.021 E6.77828 ; infill
G1 X162.505 Y43.021 E6.78394 ; infill
G1 X169.462 Y49.979 E6.89422 ; infill
G1 X168.957 Y49.979 E6.89988 ; infill
G1 X161.999 Y43.021 E7.01015 ; infill
G1 X161.494 Y43.021 E7.01582 ; infill
G1 X168.451 Y49.979 E7.12609 ; infill
G1 X167.945 Y49.979 E7.13176 ; infill
G1 X160.988 Y43.021 E7.24203 ; infill
G1 X160.483 Y43.021 E7.2477 ; infill
G1 X167.44 Y49.979 E7.35797 ; infill
G1 X166.934 Y49.979 E7.36364 ; infill
G1 X159.977 Y43.021 E7.47391 ; infill
G1 X159.471 Y43.021 E7.47958 ; infill
G1 X166.429 Y49.979 E7.58985 ; infill
G1 X165.923 Y49.979 E7.59552 ; infill
G1 X158.966 Y43.021 E7.70579 ; infill
G1 X158.46 Y43.021 E7.71146 ; infill
G1 X165.418 Y49.979 E7.82173 ; infill
G1 X164.912 Y49.979 E7.8274 ; infill
G1 X157.955 Y43.021 E7.93767 ; infill
G1 X157.449 Y43.021 E7.94334 ; infill
G1 X164.406 Y49.979 E8.05361 ; infill
G1 X163.901 Y49.979 E8.05928 ; infill
G1 X156.944 Y43.021 E8.16955 ; infill
G1 X156.438 Y43.021 E8.17522 ; infill
G1 X163.395 Y49.979 E8.28549 ; infill
G1 X162.89 Y49.979 E8.29115 ; infill
G1 X155.933 Y43.021 E8.40143 ; infill
G1 X155.427 Y43.021 E8.40709 ; infill
G1 X162.384 Y49.979 E8.51737 ; infill
G1 X161.879 Y49.979 E8.52303 ; infill
G1 X154.921 Y43.021 E8.63331 ; infill
G1 X154.416 Y43.021 E8.63897 ; infill
G1 X161.373 Y49.979 E8.74925 ; infill
G1 X160.868 Y49.979 E8.75491 ; infill
G1 X153.91 Y43.021 E8.86519 ; infill
G1 X153.405 Y43.021 E8.87085 ; infill
G1 X160.362 Y49.979 E8.98113 ; infill
G1 X159.856 Y49.979 E8.98679 ; infill
G1 X152.899 Y43.021 E9.09706 ; infill
G1 X152.394 Y43.021 E9.10273 ; infill
G1 X159.351 Y49.979 E9.213 ; infill
G1 X158.845 Y49.979 E9.21867 ; infill
G1 X151.888 Y43.021 E9.32894 ; infill
G1 X151.382 Y43.021 E9.33461 ; infill
G1 X158.34 Y49.979 E9.44488 ; infill
G1 X157.834 Y49.979 E9.45055 ; infill
G1 X150.877 Y43.021 E9.56082 ; infill
G1 X150.371 Y43.021 E9.56649 ; infill
G1 X157.329 Y49.979 E9.67676 ; infill
G1 X156.823 Y49.979 E9.68243 ; infill
G1 X149.866 Y43.021 E9.7927 ; infill
G1 X149.36 Y43.021 E9.79837 ; infill
G1 X156.317 Y49.979 E9.90864 ; infill
G1 X155.812 Y49.979 E9.91431 ; infill
G1 X148.855 Y43.021 E10.02458 ; infill
G1 X148.349 Y43.021 E10.03025 ; infill
G1 X155.306 Y49.979 E10.14052 ; infill
G1 X154.801 Y49.979 E10.14619 ; infill
G1 X147.843 Y43.021 E10.25646 ; infill
G1 X147.338 Y43.021 E10.26213 ; infill
G1 X154.295 Y49.979 E10.3724 ; infill
G1 X153.79 Y49.979 E10.37806 ; infill
G1 X146.832 Y43.021 E10.48834 ; infill
G1 X146.327 Y43.021 E10.494 ; infill
G1 X153.284 Y49.979 E10.60428 ; infill
G1 X152.778 Y49.979 E10.60994 ; infill
G1 X145.821 Y43.021 E10.72022 ; infill
G1 X145.316 Y43.021 E10.72588 ; infill
G1 X152.273 Y49.979 E10.83616 ; infill
G1 X151.767 Y49.979 E10.84182 ; infill
G1 X144.81 Y43.021 E10.9521 ; infill
G1 X144.304 Y43.021 E10.95776 ; infill
G1 X151.262 Y49.979 E11.06804 ; infill
G1 X150.756 Y49.979 E11.0737 ; infill
G1 X143.799 Y43.021 E11.18397 ; infill
G1 X143.293 Y43.021 E11.18964 ; infill
G1 X150.251 Y49.979 E11.29991 ; infill
G1 X149.745 Y49.979 E11.30558 ; infill
G1 X142.788 Y43.021 E11.41585 ; infill
M73 P3 R38
G1 X142.282 Y43.021 E11.42152 ; infill
G1 X149.239 Y49.979 E11.53179 ; infill
G1 X148.734 Y49.979 E11.53746 ; infill
G1 X141.777 Y43.021 E11.64773 ; infill
G1 X141.271 Y43.021 E11.6534 ; infill
G1 X148.228 Y49.979 E11.76367 ; infill
G1 X147.723 Y49.979 E11.76934 ; infill
G1 X140.765 Y43.021 E11.87961 ; infill
G1 X140.26 Y43.021 E11.88528 ; infill
G1 X147.217 Y49.979 E11.99555 ; infill
M73 P3 R37
G1 X146.712 Y49.979 E12.00122 ; infill
G1 X139.754 Y43.021 E12.11149 ; infill
G1 X139.249 Y43.021 E12.11716 ; infill
G1 X146.206 Y49.979 E12.22743 ; infill
G1 X145.7 Y49.979 E12.2331 ; infill
G1 X138.743 Y43.021 E12.34337 ; infill
G1 X138.238 Y43.021 E12.34904 ; infill
G1 X145.195 Y49.979 E12.45931 ; infill
G1 X144.689 Y49.979 E12.46497 ; infill
G1 X137.732 Y43.021 E12.57525 ; infill
G1 X137.353 Y43.021 E12.5795 ; infill
G1 X137.301 Y43.096 E12.58052 ; infill
G1 X144.184 Y49.979 E12.68961 ; infill
G1 X143.678 Y49.979 E12.69528 ; infill
G1 X137.092 Y43.393 E12.79966 ; infill
G1 X136.884 Y43.69 E12.80373 ; infill
G1 X143.173 Y49.979 E12.9034 ; infill
G1 X142.667 Y49.979 E12.90907 ; infill
G1 X136.676 Y43.988 E13.00403 ; infill
G1 X136.468 Y44.285 E13.0081 ; infill
G1 X142.161 Y49.979 E13.09834 ; infill
G1 X141.656 Y49.979 E13.10401 ; infill
G1 X136.26 Y44.582 E13.18954 ; infill
G1 X136.051 Y44.88 E13.19361 ; infill
G1 X141.15 Y49.979 E13.27443 ; infill
G1 X140.645 Y49.979 E13.28009 ; infill
G1 X135.843 Y45.177 E13.3562 ; infill
G1 X135.635 Y45.474 E13.36027 ; infill
G1 X140.139 Y49.979 E13.43166 ; infill
G1 X139.634 Y49.979 E13.43733 ; infill
G1 X135.427 Y45.772 E13.504 ; infill
G1 X135.219 Y46.069 E13.50807 ; infill
G1 X139.128 Y49.979 E13.57004 ; infill
G1 X138.622 Y49.979 E13.57571 ; infill
G1 X135.01 Y46.366 E13.63296 ; infill
G1 X134.802 Y46.664 E13.63703 ; infill
G1 X138.117 Y49.979 E13.68957 ; infill
G1 X137.611 Y49.979 E13.69523 ; infill
G1 X134.594 Y46.961 E13.74306 ; infill
G1 X134.386 Y47.259 E13.74713 ; infill
G1 X137.106 Y49.979 E13.79024 ; infill
G1 X136.6 Y49.979 E13.79591 ; infill
G1 X134.177 Y47.556 E13.83431 ; infill
G1 X133.963 Y47.847 E13.83836 ; infill
G1 X136.095 Y49.979 E13.87215 ; infill
G1 X135.589 Y49.979 E13.87781 ; infill
G1 X133.627 Y48.017 E13.90891 ; infill
G1 X133.126 Y48.021 E13.91452 ; infill
G1 X135.084 Y49.979 E13.94555 ; infill
G1 X134.578 Y49.979 E13.95121 ; infill
G1 X132.621 Y48.021 E13.98224 ; infill
G1 X132.115 Y48.021 E13.9879 ; infill
G1 X134.072 Y49.979 E14.01893 ; infill
G1 X133.567 Y49.979 E14.02459 ; infill
G1 X131.61 Y48.021 E14.05561 ; infill
G1 X131.104 Y48.021 E14.06128 ; infill
G1 X133.061 Y49.979 E14.0923 ; infill
G1 X132.556 Y49.979 E14.09797 ; infill
G1 X130.598 Y48.021 E14.12899 ; infill
G1 X130.093 Y48.021 E14.13466 ; infill
G1 X132.05 Y49.979 E14.16568 ; infill
G1 X131.545 Y49.979 E14.17135 ; infill
G1 X129.587 Y48.021 E14.20237 ; infill
G1 X129.082 Y48.021 E14.20804 ; infill
G1 X131.039 Y49.979 E14.23906 ; infill
G1 X130.533 Y49.979 E14.24473 ; infill
G1 X128.576 Y48.021 E14.27575 ; infill
G1 X128.071 Y48.021 E14.28142 ; infill
G1 X130.028 Y49.979 E14.31244 ; infill
G1 X129.522 Y49.979 E14.31811 ; infill
G1 X127.565 Y48.021 E14.34913 ; infill
G1 X127.059 Y48.021 E14.35479 ; infill
G1 X129.017 Y49.979 E14.38582 ; infill
G1 X128.511 Y49.979 E14.39148 ; infill
G1 X126.393 Y47.861 E14.42505 ; infill
M204 P3000 ; adjust acceleration
G1 X123.542 Y44.504 F12000 ; move to first infill point
M204 P10000 ; adjust acceleration
G1 F1500
G1 X122.059 Y43.021 E14.44855 ; infill
G1 X121.554 Y43.021 E14.45422 ; infill
G1 X124.723 Y46.19 E14.50445 ; infill
M204 P3000 ; adjust acceleration
G1 E8.50445 F3000 ; retract
G92 E0 ; reset extrusion distance
G1 X120.888 Y42.861 F12000 ; move to first infill point
G1 E6 F3000 ;  ; unretract
M204 P10000 ; adjust acceleration
G1 F1500
G1 X128.006 Y49.979 E6.11282 ; infill
G1 X127.5 Y49.979 E6.11849 ; infill
G1 X120.543 Y43.021 E6.22876 ; infill
G1 X120.037 Y43.021 E6.23443 ; infill
G1 X126.994 Y49.979 E6.3447 ; infill
G1 X126.489 Y49.979 E6.35037 ; infill
G1 X119.532 Y43.021 E6.46064 ; infill
G1 X119.026 Y43.021 E6.4663 ; infill
G1 X125.983 Y49.979 E6.57658 ; infill
G1 X125.478 Y49.979 E6.58224 ; infill
G1 X118.52 Y43.021 E6.69252 ; infill
G1 X118.015 Y43.021 E6.69818 ; infill
G1 X124.972 Y49.979 E6.80846 ; infill
G1 X124.467 Y49.979 E6.81412 ; infill
G1 X117.509 Y43.021 E6.9244 ; infill
G1 X117.004 Y43.021 E6.93006 ; infill
G1 X123.961 Y49.979 E7.04034 ; infill
G1 X123.455 Y49.979 E7.046 ; infill
G1 X116.498 Y43.021 E7.15627 ; infill
G1 X115.993 Y43.021 E7.16194 ; infill
G1 X122.95 Y49.979 E7.27221 ; infill
G1 X122.444 Y49.979 E7.27788 ; infill
G1 X115.487 Y43.021 E7.38815 ; infill
G1 X114.981 Y43.021 E7.39382 ; infill
G1 X121.939 Y49.979 E7.50409 ; infill
G1 X121.433 Y49.979 E7.50976 ; infill
G1 X114.476 Y43.021 E7.62003 ; infill
G1 X113.97 Y43.021 E7.6257 ; infill
G1 X120.928 Y49.979 E7.73597 ; infill
G1 X120.422 Y49.979 E7.74164 ; infill
G1 X113.465 Y43.021 E7.85191 ; infill
G1 X112.959 Y43.021 E7.85758 ; infill
G1 X119.916 Y49.979 E7.96785 ; infill
G1 X119.411 Y49.979 E7.97352 ; infill
G1 X112.454 Y43.021 E8.08379 ; infill
G1 X111.948 Y43.021 E8.08946 ; infill
G1 X118.905 Y49.979 E8.19973 ; infill
G1 X118.4 Y49.979 E8.2054 ; infill
G1 X111.442 Y43.021 E8.31567 ; infill
G1 X110.937 Y43.021 E8.32134 ; infill
G1 X116.394 Y48.479 E8.40783 ; infill
G1 X115.889 Y48.479 E8.4135 ; infill
G1 X110.431 Y43.021 E8.5 ; infill
G1 X109.926 Y43.021 E8.50566 ; infill
G1 X115.383 Y48.479 E8.59216 ; infill
G1 X114.877 Y48.479 E8.59783 ; infill
G1 X109.42 Y43.021 E8.68433 ; infill
G1 X108.915 Y43.021 E8.68999 ; infill
G1 X114.372 Y48.479 E8.77649 ; infill
G1 X113.866 Y48.479 E8.78216 ; infill
G1 X108.409 Y43.021 E8.86866 ; infill
G1 X107.903 Y43.021 E8.87432 ; infill
G1 X113.361 Y48.479 E8.96082 ; infill
G1 X112.855 Y48.479 E8.96649 ; infill
G1 X107.398 Y43.021 E9.05298 ; infill
G1 X106.892 Y43.021 E9.05865 ; infill
G1 X112.35 Y48.479 E9.14515 ; infill
G1 X111.844 Y48.479 E9.15081 ; infill
G1 X106.387 Y43.021 E9.23731 ; infill
M73 P4 R37
G1 X105.881 Y43.021 E9.24298 ; infill
G1 X111.356 Y48.496 E9.32975 ; infill
G1 X111.151 Y48.612 E9.33239 ; infill
G1 X111.058 Y48.704 E9.33385 ; infill
G1 X105.376 Y43.021 E9.42393 ; infill
G1 X104.87 Y43.021 E9.42959 ; infill
G1 X110.806 Y48.957 E9.52367 ; infill
G1 X110.553 Y49.21 E9.52768 ; infill
G1 X104.365 Y43.021 E9.62577 ; infill
G1 X103.859 Y43.021 E9.63143 ; infill
G1 X110.3 Y49.463 E9.73353 ; infill
G1 X110.047 Y49.715 E9.73753 ; infill
G1 X103.353 Y43.021 E9.84363 ; infill
G1 X102.848 Y43.021 E9.8493 ; infill
G1 X109.795 Y49.968 E9.95941 ; infill
G1 X109.3 Y49.979 E9.96495 ; infill
G1 X102.342 Y43.021 E10.07523 ; infill
G1 X101.837 Y43.021 E10.08089 ; infill
G1 X108.794 Y49.979 E10.19117 ; infill
G1 X108.288 Y49.979 E10.19683 ; infill
G1 X101.331 Y43.021 E10.30711 ; infill
G1 X100.826 Y43.021 E10.31277 ; infill
G1 X107.783 Y49.979 E10.42305 ; infill
G1 X107.277 Y49.979 E10.42871 ; infill
G1 X100.32 Y43.021 E10.53899 ; infill
G1 X99.814 Y43.021 E10.54465 ; infill
G1 X106.772 Y49.979 E10.65492 ; infill
G1 X106.266 Y49.979 E10.66059 ; infill
G1 X99.309 Y43.021 E10.77086 ; infill
G1 X98.803 Y43.021 E10.77653 ; infill
G1 X105.761 Y49.979 E10.8868 ; infill
G1 X105.255 Y49.979 E10.89247 ; infill
G1 X98.298 Y43.021 E11.00274 ; infill
